X:1
T:Title
%%score { ( 1 3 ) | ( 2 4 ) }
L:1/8
M:4/4
K:Bb
V:1 treble nm="Grand Piano"
V:3 treble 
V:2 bass 
V:4 bass 
V:1
 z4 z[Q:1/4=100] [DF][DG][DA] | [DG]2 [DF]2- [DF][DG][DA][DB] | [Fd]>[Fd] [Fd]2- [Fd][DF][DG][DA] | %3
 [DG]2 [DF]2- [DF][DG][DA][DB] | [Fe]>[Fe] [Fe]2- [Fe][Fe][Fd][Fc] | f>c c2- c[Fe][Fd][Fc] | %6
 [Ff]>[DB] [DB]2- [DB][Fd][CFc][DFB] | [CFA]2 [Fc]2 [=EB]2 [EG]2 |[M:5/8] F-F- F3 | %9
[M:3/8][K:bass] F,G,A, |[M:4/4][K:treble] d2 d2 d2 [Fd]2 | z2 d2[K:bass] [Fd]2 z2 | %12
 d2 d2 d2 [Fd]2 | z4 e2[K:bass] z2 | d3 d d3 d | e3 e [B=e]3 [Be] | [Bf]2 d2 c3 B | %17
[M:5/8] [DB]-[DB]- [DB]3 |] %18
V:2
 z4 z [B,,F,][B,,F,][B,,F,] | [B,,F,]2 [B,,F,]2- [B,,F,][B,,F,][B,,F,][B,,F,] | %2
 [B,,B,]>[B,,B,] [B,,B,]2- [B,,B,][B,,F,][B,,F,][B,,F,] | %3
 [B,,F,]2 [B,,F,]2- [B,,F,][B,,F,][B,,F,][B,,F,] | %4
 [C,A,]>[C,A,] [C,A,]2- [C,A,][C,A,][D,B,][E,B,] | %5
 [F,A,F]>[F,A,F] [F,A,F]2- [F,A,F][E,C][D,B,][C,A,] | %6
 [B,,B,]>[B,,B,] [B,,B,]2- [B,,B,][B,,B,]B,,B,, | C,2 [C,A,]2 [C,G,]2 [C,B,]2 | %8
[M:5/8] [F,A,]-[F,A,]- [F,A,]3 |[M:3/8] z3 | %10
[M:4/4][K:treble] [B,F]2 [G,B,F]2[K:bass] [F,B,F]2 [D,B,]2 | B,2 [B,F]2 .[D,B,]2 z2 | %12
 [B,F]2 [G,B,F]2[K:bass] [F,B,F]2 [D,B,]2 | A,2[K:treble] [A,A]2 [A,A]2 z2 | %14
 [B,F]3 [B,F] [_A,B,F]3 [A,B,F] | [G,B,E]3[K:bass] [G,B,E] [^F,B,]3 [F,B,] | %16
 [F,D]2 [F,B,F]2 [F,A,E]3 [F,D] |[M:5/8] [B,,F,]-[B,,F,]- [B,,F,]3 |] %18
V:3
 x8 | x8 | x8 | x8 | x8 | x8 | x8 | x8 |[M:5/8] x5 |[M:3/8][K:bass] x3 |[M:4/4][K:treble] x8 | %11
 [Fd]2 z[K:bass] C, z F,G,A, | x8 | [Ae]2 e2 z[K:bass] F,G,A, | x8 | x8 | x8 |[M:5/8] x5 |] %18
V:4
 x8 | x8 | x8 | x8 | x8 | x8 | x8 | x8 |[M:5/8] x5 |[M:3/8] x3 |[M:4/4][K:treble] x4[K:bass] x4 | %11
 B,,4 z4 | x4[K:bass] x4 | C,6[K:treble] z2 | x8 | x3[K:bass] x5 | x8 |[M:5/8] x5 |] %18

